X:228
T: WAS BLINKT SO FREUNDLICH IN DER FERNE
N: E1367
O: Europa, Mitteleuropa, Deutschland, Hessen, Schlesien
R: Staende -, Soldaten -, Kriegs - Lied, Reservisten
M: 3/4
L: 1/16
K: G
D2 | G3AB2c2d2e2 | d4d4z2
d2 | c3BA4d4 | B3AG4z2
D2 | G3AB2c2d2e2 | d4d4z2
d2 | c3BA4d4 | B3AG4z2
D2 | c3cc6d2 | B3BB4z2
B2 | A3AA6F2 | G3ed4z2
D2 | G3AB2c2d2e2 | d8
d4 | c3BA4d4 | B3AG4z2

@@@ Tune index: 4912
